assets/images/cards/visa.svg

<?xml version="1.0" encoding="UTF-8" standalone="no"?>
<svg viewBox="0 0 750 471" version="1.1" xmlns="http://www.w3.org/2000/svg" xmlns:xlink="http://www.w3.org/1999/xlink" xmlns:sketch="http://www.bohemiancoding.com/sketch/ns" preserveAspectRatio="xMidYMid meet">
    <!-- Generator: Sketch 3.3.1 (12005) - http://www.bohemiancoding.com/sketch -->
    <title>Slice 1</title>
    <desc>Created with Sketch.</desc>
    <defs></defs>
    <g id="Page-1" stroke="none" stroke-width="1" fill="none" fill-rule="evenodd" sketch:type="MSPage">
        <g id="visa" sketch:type="MSLayerGroup">
            <rect id="Rectangle-1" fill="#0E4595" sketch:type="MSShapeGroup" x="0" y="0" width="750" height="471" rx="40"></rect>
            <path d="M278.1975,334.2275 L311.5585,138.4655 L364.9175,138.4655 L331.5335,334.2275 L278.1975,334.2275 L278.1975,334.2275 Z" id="Shape" fill="#FFFFFF" sketch:type="MSShapeGroup"></path>
            <path d="M524.3075,142.6875 C513.7355,138.7215 497.1715,134.4655 476.4845,134.4655 C423.7605,134.4655 386.6205,161.0165 386.3045,199.0695 C386.0075,227.1985 412.8185,242.8905 433.0585,252.2545 C453.8275,261.8495 460.8105,267.9695 460.7115,276.5375 C460.5795,289.6595 444.1255,295.6545 428.7885,295.6545 C407.4315,295.6545 396.0855,292.6875 378.5625,285.3785 L371.6865,282.2665 L364.1975,326.0905 C376.6605,331.5545 399.7065,336.2895 423.6355,336.5345 C479.7245,336.5345 516.1365,310.2875 516.5505,269.6525 C516.7515,247.3835 502.5355,230.4355 471.7515,216.4645 C453.1005,207.4085 441.6785,201.3655 441.7995,192.1955 C441.7995,184.0585 451.4675,175.3575 472.3565,175.3575 C489.8055,175.0865 502.4445,178.8915 512.2925,182.8575 L517.0745,185.1165 L524.3075,142.6875" id="path13" fill="#FFFFFF" sketch:type="MSShapeGroup"></path>
            <path d="M661.6145,138.4655 L620.3835,138.4655 C607.6105,138.4655 598.0525,141.9515 592.4425,154.6995 L513.1975,334.1025 L569.2285,334.1025 C569.2285,334.1025 578.3905,309.9805 580.4625,304.6845 C586.5855,304.6845 641.0165,304.7685 648.7985,304.7685 C650.3945,311.6215 655.2905,334.1025 655.2905,334.1025 L704.8025,334.1025 L661.6145,138.4655 L661.6145,138.4655 Z M596.1975,264.8725 C600.6105,253.5935 617.4565,210.1495 617.4565,210.1495 C617.1415,210.6705 621.8365,198.8155 624.5315,191.4655 L628.1385,208.3435 C628.1385,208.3435 638.3555,255.0725 640.4905,264.8715 L596.1975,264.8715 L596.1975,264.8725 L596.1975,264.8725 Z" id="Path" fill="#FFFFFF" sketch:type="MSShapeGroup"></path>
            <path d="M232.9025,138.4655 L180.6625,271.9605 L175.0965,244.8315 C165.3715,213.5575 135.0715,179.6755 101.1975,162.7125 L148.9645,333.9155 L205.4195,333.8505 L289.4235,138.4655 L232.9025,138.4655" id="path16" fill="#FFFFFF" sketch:type="MSShapeGroup"></path>
            <path d="M131.9195,138.4655 L45.8785,138.4655 L45.1975,142.5385 C112.1365,158.7425 156.4295,197.9015 174.8155,244.9525 L156.1065,154.9925 C152.8765,142.5965 143.5085,138.8975 131.9195,138.4655" id="path18" fill="#F2AE14" sketch:type="MSShapeGroup"></path>
        </g>
    </g>
</svg>

<svg viewBox="0 0 750 471" xmlns="http://www.w3.org/2000/svg"><g fill="none" fill-rule="evenodd"><rect fill="#0E4595" width="750" height="471" rx="40"/><path d="M278.2 334.23l33.36-195.76h53.36l-33.39 195.76H278.2zm246.1-191.54c-10.56-3.97-27.13-8.22-47.82-8.22-52.72 0-89.86 26.55-90.18 64.6-.3 28.13 26.52 43.82 46.76 53.18 20.77 9.6 27.75 15.72 27.65 24.29-.13 13.12-16.58 19.11-31.92 19.11-21.36 0-32.7-2.96-50.23-10.27l-6.87-3.11-7.5 43.82c12.47 5.46 35.52 10.2 59.45 10.44 56.08 0 92.5-26.24 92.91-66.88.2-22.27-14.01-39.21-44.8-53.19-18.65-9.05-30.07-15.1-29.95-24.26 0-8.14 9.67-16.84 30.56-16.84a98.43 98.43 0 0139.93 7.5l4.78 2.26 7.24-42.43m137.3-4.22h-41.23c-12.77 0-22.33 3.48-27.94 16.23L513.2 334.1h56.03s9.16-24.12 11.23-29.42c6.13 0 60.56.09 68.34.09 1.6 6.85 6.49 29.33 6.49 29.33h49.51l-43.19-195.63zm-65.41 126.4c4.41-11.28 21.26-54.72 21.26-54.72-.32.52 4.38-11.33 7.07-18.68l3.6 16.87s10.23 46.73 12.36 56.53h-44.3zm-363.3-126.4l-52.24 133.5-5.56-27.14c-9.73-31.27-40.03-65.15-73.9-82.12l47.76 171.2 56.46-.06 84-195.38H232.9" fill="#FFF"/><path d="M131.92 138.47H45.88l-.68 4.07c66.94 16.2 111.23 55.36 129.62 102.41L156.1 155c-3.23-12.4-12.6-16.1-24.2-16.52" fill="#F2AE14"/></g></svg>
